svgs/light/droplet-degree.svg

<svg xmlns="http://www.w3.org/2000/svg" viewBox="0 0 448 512"><!-- Font Awesome Pro 6.0.0-alpha2 by @fontawesome - https://fontawesome.com License - https://fontawesome.com/license (Commercial License) --><path d="M191.99 32C180.74 32 169.457 38.32 165.438 51.361C122.938 189.281 32 226.906 32 324.141C32 410.219 103.562 480 192 480S352 410.219 352 324.141C352 226.359 261.271 190.047 218.562 51.361C214.932 38.596 203.479 32 191.99 32ZM320 324.141C320 392.438 262.58 448 192 448S64 392.438 64 324.141C64 283.426 84.559 255.068 113.014 215.818C138.684 180.41 170.256 136.865 191.998 73.17C213.846 137.254 245.457 180.715 271.156 216.049C299.512 255.033 320 283.199 320 324.141ZM352 32C316.654 32 288 60.654 288 96S316.654 160 352 160S416 131.346 416 96S387.346 32 352 32ZM352 128C334.355 128 320 113.645 320 96S334.355 64 352 64S384 78.355 384 96S369.645 128 352 128Z"/></svg>

<svg xmlns="http://www.w3.org/2000/svg" viewBox="0 0 448 512"><!--! Font Awesome Pro 6.0.0-alpha3 by @fontawesome - https://fontawesome.com License - https://fontawesome.com/license (Commercial License) --><path d="M191.1 32C180.7 32 169.5 38.32 165.4 51.36C122.9 189.3 32 226.9 32 324.1C32 410.2 103.6 480 192 480s160-69.78 160-155.9c0-97.78-90.73-134.1-133.4-272.8C214.9 38.6 203.5 32 191.1 32zM319.1 324.1C319.1 392.4 262.6 448 192 448s-128-55.56-128-123.9c0-40.71 20.56-69.07 49.01-108.3C138.7 180.4 170.3 136.9 191.1 73.17c21.85 64.08 53.46 107.5 79.16 142.9C299.5 255 319.1 283.2 319.1 324.1zM352 32c-35.35 0-64 28.65-64 64s28.65 64 64 64s64-28.65 64-64S387.3 32 352 32zM352 128c-17.64 0-32-14.36-32-32s14.36-32 32-32s32 14.36 32 32S369.6 128 352 128z"/></svg>
